src/topics/icons/postman.svg

<svg height="264" preserveAspectRatio="xMidYMid" viewBox="0 0 256 264" width="256" xmlns="http://www.w3.org/2000/svg"><g fill="none"><path d="m45.9853445 256.455035-45.9853445 1.59526 23.5727668-23.967452 22.4144135 22.374027z" fill="#f15a24"/><path d="m254.580742 137.579706c-8.543545 66.613581-69.475503 113.676506-136.07807 105.123783-66.6135802-8.54538-113.6765055-69.475503-105.1329609-136.083576 8.5490519-66.6117454 69.46816-113.68017787 136.0872479-105.12561877 66.609909 8.54170887 113.683849 69.47733867 105.123783 136.08357677" fill="#f15a24"/><path d="m164.981832 87.5318642c7.990986 8.4939796.104637 28.5770008.104637 28.5770008s-7.794562 28.393426-52.421457 65.212909l-8.330599-8.176396 56.651008-57.899312 1.094102-1.477773c1.507145-2.456223 2.755449-26.4016456 2.902309-26.2364288" fill="#999"/><path d="m164.981832 87.5318642c7.990986 8.4939796.104637 28.5770008.104637 28.5770008s-7.794562 28.393426-52.421457 65.212909l-8.330599-8.176396 56.651008-57.899312 1.094102-1.477773c1.507145-2.456223 2.755449-26.4016456 2.902309-26.2364288z" stroke="#fff" stroke-linecap="round" stroke-linejoin="round" stroke-width="1.918"/><path d="m92.099191 161.108415 72.763317-73.7858254c3.693514 4.3855883 4.479212 9.110789 3.407138 15.8424564-.721447 4.662785-8.774848 13.981013-8.774848 13.981013l-55.160385 55.999319" fill="#666"/><path d="m92.099191 161.108415 72.763317-73.7858254c3.693514 4.3855883 4.479212 9.110789 3.407138 15.8424564-.721447 4.662785-8.774848 13.981013-8.774848 13.981013l-55.160385 55.999319" stroke="#fff" stroke-linecap="round" stroke-linejoin="round" stroke-width="1.201"/><path d="m164.981832 87.583265-72.882641 73.526986.1468594-.143188-.0275361.011015-18.0820616-17.817715c37.7079823-46.9050514 62.0884763-55.6505277 62.0884763-55.6505277s15.871828-6.1956303 27.194686-1.3878212c.870142.4662786 1.248305.7342969 1.560381 1.4630866" fill="#ff931e"/><path d="m164.981832 87.583265-72.882641 73.526986.1468594-.143188-.0275361.011015-18.0820616-17.817715c37.7079823-46.9050514 62.0884763-55.6505277 62.0884763-55.6505277s15.871828-6.1956303 27.194686-1.3878212c.870142.4662786 1.248305.7342969 1.560381 1.4630866z" stroke="#fff" stroke-linecap="round" stroke-linejoin="round" stroke-width="1.918"/><path d="m112.665012 181.319938c-17.388151 14.320626-39.6410192 36.815812-69.888545 52.505901l6.7279955 28.762411-28.5164208-28.086858 71.1093136-73.392977" fill="#999"/><path d="m112.665012 181.319938c-17.388151 14.320626-39.6410192 36.815812-69.888545 52.505901l6.7279955 28.762411-28.5164208-28.086858 71.1093136-73.392977" stroke="#fff" stroke-linecap="round" stroke-linejoin="round" stroke-width="1.918"/><path d="m74.6229244 143.400845 17.6653481 17.59559-40.810387 8.839099 22.7540258-26.752272.3928488.317583z" fill="#f15a24"/><path d="m74.6229244 143.400845 17.6653481 17.59559-40.810387 8.839099 22.7540258-26.752272.3928488.317583z" stroke="#fff" stroke-linecap="round" stroke-linejoin="round" stroke-width="1.918"/><path d="m158.024368 66.2464323c-1.73294 15.6405243 9.527503 29.7206678 25.168027 31.4646229 15.627674 1.7366123 29.720668-9.5330097 31.464623-25.1680269 1.738448-15.6350171-9.540352-29.7298465-25.173534-31.4682944-15.64236-1.7274335-29.724339 9.5275025-31.459116 25.1716984" fill="#999"/><path d="m158.024368 66.2464323c-1.73294 15.6405243 9.527503 29.7206678 25.168027 31.4646229 15.627674 1.7366123 29.720668-9.5330097 31.464623-25.1680269 1.738448-15.6350171-9.540352-29.7298465-25.173534-31.4682944-15.64236-1.7274335-29.724339 9.5275025-31.459116 25.1716984z" stroke="#fff" stroke-linecap="round" stroke-linejoin="round" stroke-width="1.918"/><path d="m210.565149 85.1380562c5.25573-7.67891 4.98404-19.1669853 3.928488-22.5704515-1.294198-4.167135-4.190999-10.9446956-9.242962-14.467485l-26.713722 24.6062897s20.530942 22.0582795 21.065143 22.1317091c.222125.0257004 6.16993-2.6985411 10.963053-9.7000623" fill="#666"/><path d="m210.565149 85.1380562c5.25573-7.67891 4.98404-19.1669853 3.928488-22.5704515-1.294198-4.167135-4.190999-10.9446956-9.242962-14.467485l-26.713722 24.6062897s20.530942 22.0582795 21.065143 22.1317091c.222125.0257004 6.16993-2.6985411 10.963053-9.7000623zm-5.38974-19.2752941s2.568204 6.3076106-.690239 11.2145497z" stroke="#fff" stroke-linecap="round" stroke-linejoin="round" stroke-width="1.918"/><path d="m104.964073 173.156392-29.4820212 5.246552 17.7956858-18.489597" fill="#666"/><path d="m104.964073 173.156392-29.4820212 5.246552 17.7956858-18.489597m-17.9700814-16.384 37.4803508 35.273788" stroke="#fff" stroke-linecap="round" stroke-linejoin="round" stroke-width="1.918"/></g></svg>

<?xml version="1.0" encoding="UTF-8"?>
<svg width="256px" height="264px" viewBox="0 0 256 264" version="1.1" xmlns="http://www.w3.org/2000/svg" xmlns:xlink="http://www.w3.org/1999/xlink" preserveAspectRatio="xMidYMid">
    <g fill="none">
		<polygon fill="#F15A24" fill-rule="nonzero" points="45.9853445 256.455035 0 258.050295 23.5727668 234.082843 45.9871803 256.45687"></polygon>
		<path d="M254.580742,137.579706 C246.037197,204.193287 185.105239,251.256212 118.502672,242.703489 C51.8890918,234.158109 4.8261665,173.227986 13.3697111,106.619913 C21.918763,40.0081676 82.8378711,-7.06026487 149.456959,1.49429423 C216.066868,10.0360031 263.140808,70.9716329 254.580742,137.577871" fill="#F15A24" fill-rule="nonzero"></path>
		<path d="M164.981832,87.5318642 C172.972818,96.0258438 165.086469,116.108865 165.086469,116.108865 C165.086469,116.108865 157.291907,144.502291 112.665012,181.321774 L104.334413,173.145378 L160.985421,115.246066 L162.079523,113.768293 C163.586668,111.31207 164.834972,87.3666474 164.981832,87.5318642" fill="#999999" fill-rule="nonzero"></path>
		<path d="M164.981832,87.5318642 C172.972818,96.0258438 165.086469,116.108865 165.086469,116.108865 C165.086469,116.108865 157.291907,144.502291 112.665012,181.321774 L104.334413,173.145378 L160.985421,115.246066 L162.079523,113.768293 C163.586668,111.31207 164.834972,87.3666474 164.981832,87.5318642 L164.981832,87.5318642 Z" stroke="#FFFFFF" stroke-width="1.918" stroke-linecap="round" stroke-linejoin="round"></path>
		<path d="M92.099191,161.108415 L164.862508,87.3225896 C168.556022,91.7081779 169.34172,96.4333786 168.269646,103.165046 C167.548199,107.827831 159.494798,117.146059 159.494798,117.146059 L104.334413,173.145378" fill="#666666" fill-rule="nonzero"></path>
		<path d="M92.099191,161.108415 L164.862508,87.3225896 C168.556022,91.7081779 169.34172,96.4333786 168.269646,103.165046 C167.548199,107.827831 159.494798,117.146059 159.494798,117.146059 L104.334413,173.145378" stroke="#FFFFFF" stroke-width="1.201" stroke-linecap="round" stroke-linejoin="round"></path>
		<path d="M164.981832,87.583265 L92.099191,161.110251 L92.2460504,160.967063 L92.2185143,160.978078 L74.1364527,143.160363 C111.844435,96.2553116 136.224929,87.5098353 136.224929,87.5098353 C136.224929,87.5098353 152.096757,81.314205 163.419615,86.1220141 C164.289757,86.5882927 164.66792,86.856311 164.979996,87.5851007" fill="#FF931E" fill-rule="nonzero"></path>
		<path d="M164.981832,87.583265 L92.099191,161.110251 L92.2460504,160.967063 L92.2185143,160.978078 L74.1364527,143.160363 C111.844435,96.2553116 136.224929,87.5098353 136.224929,87.5098353 C136.224929,87.5098353 152.096757,81.314205 163.419615,86.1220141 C164.289757,86.5882927 164.66792,86.856311 164.979996,87.5851007 L164.981832,87.583265 Z" stroke="#FFFFFF" stroke-width="1.918" stroke-linecap="round" stroke-linejoin="round"></path>
		<path d="M112.665012,181.319938 C95.276861,195.640564 73.0239928,218.13575 42.776467,233.825839 L49.5044625,262.58825 L20.9880417,234.501392 L92.0973553,161.108415" fill="#999999" fill-rule="nonzero"></path>
		<path d="M112.665012,181.319938 C95.276861,195.640564 73.0239928,218.13575 42.776467,233.825839 L49.5044625,262.58825 L20.9880417,234.501392 L92.0973553,161.108415" stroke="#FFFFFF" stroke-width="1.918" stroke-linecap="round" stroke-linejoin="round"></path>
		<polygon fill="#F15A24" fill-rule="nonzero" points="74.6229244 143.400845 92.2882725 160.996435 51.4778855 169.835534 74.2319113 143.083262 74.6247601 143.400845"></polygon>
		<polygon stroke="#FFFFFF" stroke-width="1.918" stroke-linecap="round" stroke-linejoin="round" points="74.6229244 143.400845 92.2882725 160.996435 51.4778855 169.835534 74.2319113 143.083262 74.6247601 143.400845"></polygon>
		<path d="M158.024368,66.2464323 C156.291428,81.8869566 167.551871,95.9671001 183.192395,97.7110552 C198.820069,99.4476675 212.913063,88.1780455 214.657018,72.5430283 C216.395466,56.9080112 205.116666,42.8131818 189.483484,41.0747339 C173.841124,39.3473004 159.759145,50.6022364 158.024368,66.2464323" fill="#999999" fill-rule="nonzero"></path>
		<path d="M158.024368,66.2464323 C156.291428,81.8869566 167.551871,95.9671001 183.192395,97.7110552 C198.820069,99.4476675 212.913063,88.1780455 214.657018,72.5430283 C216.395466,56.9080112 205.116666,42.8131818 189.483484,41.0747339 C173.841124,39.3473004 159.759145,50.6022364 158.024368,66.2464323 L158.024368,66.2464323 Z" stroke="#FFFFFF" stroke-width="1.918" stroke-linecap="round" stroke-linejoin="round"></path>
		<path d="M210.565149,85.1380562 C215.820879,77.4591462 215.549189,65.9710709 214.493637,62.5676047 C213.199439,58.4004697 210.302638,51.6229091 205.250675,48.1001197 L178.536953,72.7064094 C178.536953,72.7064094 199.067895,94.7646889 199.602096,94.8381185 C199.824221,94.8638189 205.772026,92.1395774 210.565149,85.1380562" fill="#666666" fill-rule="nonzero"></path>
		<path d="M210.565149,85.1380562 C215.820879,77.4591462 215.549189,65.9710709 214.493637,62.5676047 C213.199439,58.4004697 210.302638,51.6229091 205.250675,48.1001197 L178.536953,72.7064094 C178.536953,72.7064094 199.067895,94.7646889 199.602096,94.8381185 C199.824221,94.8638189 205.772026,92.1395774 210.565149,85.1380562 L210.565149,85.1380562 Z M205.175409,65.8627621 C205.175409,65.8627621 207.743613,72.1703727 204.48517,77.0773118 L205.175409,65.8627621 Z" stroke="#FFFFFF" stroke-width="1.918" stroke-linecap="round" stroke-linejoin="round"></path>
		<polyline fill="#666666" fill-rule="nonzero" points="104.964073 173.156392 75.4820518 178.402944 93.2777376 159.913347"></polyline>
		<path d="M104.964073,173.156392 L75.4820518,178.402944 L93.2777376,159.913347 M75.3076562,143.529347 L112.788007,178.803135" stroke="#FFFFFF" stroke-width="1.918" stroke-linecap="round" stroke-linejoin="round"></path>
    </g>
</svg>
